X: 570
T: Doudlebska polka
B: good tune book
B: tunes
M:2/4
L:1/8
Q: 1/4=100
K:C
V:1 
G,G,/G,/ G,G,/C/ |EE/E/ EC/E/ |GG,/G,/ A,_B, |B,4||
"C" GG E2 |AA G2 |GG FE |"G" F4 |\
BB A2 |BB A2 |"C" Gc BA |"G7" GE F^F |
"C" GG E2 |AA G2 |GG FE |"G" F4 |\
BB A2 |"G7" BB A2 |GG AB |"C" cG/G/ "G7" GG |]
"C" E2 G2 |c2 GE |"G7" F2 G2 |B4 |\
F2 G2 |B2 AF |"C" E2 G2 |cB AG |
"C" E2 G2 |c2 GE |"G7" F2 G2 |B4 |\
F2 G2 |B2 AB |"C" cc/c/ cc |c3 "G7" G||
"C" .E/.E/ .E/.E/E G|.c .c.c G|"G7" F/F/ F/F/F G|.B .B.B G|
F/F/ F/F/F G|.B .B.A G|"C" E/E/ E/E/E G|.c .B.A .G|
E/E/ E/E/E G|.c .c.c G|"G7" F/F/ F/F/F G|.B .B.B G|
F/F/ F/F/F G|.B .B.A B|"C" c c/c/c c|c4 |]
% abcbook-tune_id 63dce32111617193e2b3c0d7
% abcbook-tune_composer_id 
% abcbook-link-0 https://www.youtube.com/watch?v=ZMdhw9DTRHE
% abcbook-link-title-0 Doudlebska Polka
% abcbook-boost 0
% abcbook-difficulty 0
% abcbook-tags good tune book
% abcbook-tablature 
% abcbook-transpose 
% abcbook-tuning 
% abcbook-lastupdated 1675427541125
% abcbook-soundfonts 
% abcbook-repeats 1
% Titles One title
% Transcriptions Only 1 transcription
% Mode major
% Key C
% Time_signature 2/4
% Has_accompaniment_chords Has chords

